public/logos/DG.svg

<?xml version="1.0" encoding="UTF-8"?>
<svg xmlns="http://www.w3.org/2000/svg" xmlns:xlink="http://www.w3.org/1999/xlink" width="149.94pt" height="59pt" viewBox="0 0 149.94 59" version="1.1">
<defs>
<clipPath id="clip1">
  <path d="M 88 14 L 149.941406 14 L 149.941406 59 L 88 59 Z M 88 14 "/>
</clipPath>
</defs>
<g id="surface1">
<path style=" stroke:none;fill-rule:nonzero;fill:rgb(28.865051%,39.033508%,66.984558%);fill-opacity:1;" d="M 72.792969 36.988281 C 74.484375 35.753906 75.121094 33.890625 75.273438 29.757812 C 75.433594 25.273438 75 23.398438 73.394531 21.644531 C 72.28125 20.429688 72.050781 20.34375 69.6875 20.210938 C 67.269531 20.074219 65.933594 20.34375 65.417969 20.859375 C 64.898438 21.378906 65.003906 22.226562 65.003906 22.226562 L 65.003906 29.15625 C 65.003906 36.804688 64.929688 36.542969 67.40625 37.464844 C 69.105469 38.09375 71.578125 37.878906 72.792969 36.988281 Z M 69.253906 44.589844 C 68.359375 44.347656 66.914062 43.734375 66.046875 43.226562 L 64.46875 42.304688 L 63.832031 43.15625 C 63.234375 43.949219 62.957031 44.007812 59.824219 44.007812 L 56.457031 44.007812 L 56.457031 0.289062 L 57.800781 0.0742188 C 59.472656 -0.191406 62.648438 0.285156 63.410156 0.917969 C 64.800781 2.074219 65.003906 3.183594 65.003906 9.621094 C 65.003906 13.058594 65.097656 15.871094 65.214844 15.871094 C 65.332031 15.871094 65.855469 15.574219 66.375 15.207031 C 68.054688 14.03125 69.914062 13.644531 73.15625 13.796875 C 76.742188 13.96875 78.828125 14.804688 80.84375 16.882812 C 83.824219 19.953125 84.597656 22.484375 84.585938 29.117188 C 84.582031 33.210938 84.460938 34.191406 83.714844 36.300781 C 82.675781 39.253906 81.304688 41.042969 79.53125 42.597656 C 77.757812 44.152344 76.421875 44.308594 75.15625 44.511719 C 73.351562 44.800781 71.449219 45.183594 69.253906 44.589844 Z M 44.675781 24.085938 C 44.3125 21.789062 43.851562 20.988281 42.496094 20.289062 C 40.875 19.449219 37.863281 19.757812 36.640625 20.886719 C 35.558594 21.882812 34.730469 23.644531 34.730469 24.941406 L 34.730469 25.84375 L 44.953125 25.84375 Z M 36.136719 44.449219 C 31.769531 43.269531 29.253906 41.078125 27.136719 36.605469 C 26.027344 34.261719 25.878906 29.40625 25.816406 28.90625 C 25.753906 28.40625 26.039062 23.8125 27.042969 21.761719 C 29.65625 16.4375 34.089844 13.742188 40.25 13.738281 C 43.683594 13.738281 44.996094 14.070312 47.554688 15.601562 C 51.210938 17.78125 52.894531 21.511719 52.894531 27.414062 L 52.894531 30.832031 L 34.652344 30.832031 L 34.898438 32.148438 C 35.203125 33.765625 36.203125 35.785156 37.109375 36.605469 C 39.78125 39.023438 45.328125 38.792969 48.710938 36.121094 C 49.449219 35.542969 50.214844 35.164062 50.410156 35.289062 C 51.089844 35.707031 52.539062 38.996094 52.539062 40.113281 C 52.539062 41.582031 51.003906 43.011719 48.335938 44.039062 C 45.5 45.132812 39.417969 45.335938 36.136719 44.449219 Z M 10.164062 44.527344 C 4.519531 42.949219 0.890625 38.464844 0.171875 32.195312 C -1.109375 20.925781 4.796875 13.753906 15.371094 13.738281 C 21.050781 13.730469 25.46875 15.980469 25.46875 18.886719 C 25.46875 20.269531 24.667969 22.328125 23.875 22.988281 C 23.53125 23.273438 22.855469 23.035156 21.238281 22.074219 C 16.886719 19.480469 12.320312 20.109375 10.277344 23.582031 C 9.324219 25.207031 9.128906 27.429688 9.285156 29.226562 C 9.285156 29.226562 9.726562 34.96875 11.460938 36.570312 C 12.667969 37.683594 14.394531 38.308594 16.257812 38.308594 C 17.957031 38.308594 21.019531 37.175781 22.125 36.136719 C 23.171875 35.152344 23.671875 35.507812 24.738281 37.992188 C 26.039062 41.015625 25.445312 42.175781 21.722656 43.878906 C 19.917969 44.707031 19.03125 44.871094 15.855469 44.964844 C 13.277344 45.039062 11.507812 44.90625 10.164062 44.527344 "/>
<g clip-path="url(#clip1)" clip-rule="nonzero">
<path style=" stroke:none;fill-rule:nonzero;fill:rgb(23.054504%,54.759216%,44.035339%);fill-opacity:1;" d="M 138.238281 38.398438 C 141.324219 36.160156 142.039062 26.847656 139.367188 23.671875 C 137.117188 21 133.535156 21.015625 131.203125 23.710938 C 129.914062 25.199219 129.511719 26.886719 129.519531 30.71875 C 129.527344 33.835938 129.648438 34.542969 130.421875 36.0625 C 131.992188 39.15625 135.675781 40.257812 138.238281 38.398438 Z M 131.109375 45.726562 C 126.730469 44.730469 123.085938 41.578125 121.492188 37.40625 C 120.492188 34.785156 120.132812 29.21875 120.773438 26.296875 C 121.347656 23.683594 123.101562 20.375 124.828125 18.640625 C 125.582031 17.886719 127.265625 16.761719 128.566406 16.144531 C 130.847656 15.0625 133.351562 14.832031 134.804688 14.832031 C 136.1875 14.835938 140.359375 15.101562 142.199219 15.964844 C 147.722656 18.550781 150.425781 24.167969 149.871094 31.917969 C 149.242188 40.78125 144.503906 45.632812 136.101562 46.03125 C 134.390625 46.113281 132.21875 45.980469 131.109375 45.726562 Z M 107.039062 38.226562 L 107.964844 37.621094 L 107.964844 23.050781 L 106.476562 22.292969 C 103.261719 20.652344 99.546875 22.234375 98.515625 25.683594 C 97.429688 29.3125 98.066406 35.527344 99.71875 37.417969 C 101.183594 39.09375 105.0625 39.523438 107.039062 38.226562 Z M 93.597656 58.160156 C 92.261719 57.707031 90.761719 56.929688 90.269531 56.4375 C 88.804688 54.96875 89.128906 52.714844 91.171875 50.132812 L 91.855469 49.265625 L 93.589844 50.367188 C 95.621094 51.65625 98.597656 52.597656 100.636719 52.59375 C 105.363281 52.589844 107.957031 49.910156 107.960938 45.027344 L 107.964844 43.332031 L 106.09375 44.3125 C 104.425781 45.191406 103.859375 45.292969 100.839844 45.285156 C 98.085938 45.273438 97.109375 45.117188 95.589844 44.441406 C 91.164062 42.46875 88.730469 37.53125 88.730469 30.515625 C 88.730469 25.558594 90.226562 20.679688 92.503906 18.226562 C 93.867188 16.945312 93.878906 16.945312 95.496094 16.101562 C 97.046875 15.289062 98.058594 15.042969 100.351562 14.917969 C 103.515625 14.742188 105.054688 15.097656 107.070312 16.46875 L 108.351562 17.335938 L 109.347656 16.597656 C 110.71875 15.585938 112.769531 15.160156 115.023438 15.421875 L 116.917969 15.644531 L 116.773438 31.539062 C 116.621094 48.394531 116.5625 49.019531 114.804688 52.460938 C 112.34375 57.269531 108.574219 59.015625 100.6875 59 C 96.765625 58.992188 95.648438 58.859375 93.597656 58.160156 "/>
</g>
</g>
</svg>

<svg xmlns="http://www.w3.org/2000/svg" width="199.92" height="59pt" viewBox="0 0 149.94 59"><defs><clipPath id="a"><path d="M88 14h61.941v45H88Zm0 0"/></clipPath></defs><path d="M72.793 36.988c1.691-1.234 2.328-3.097 2.48-7.23.16-4.485-.273-6.36-1.878-8.113-1.114-1.215-1.344-1.301-3.707-1.434-2.418-.137-3.754.133-4.27.648-.52.52-.414 1.368-.414 1.368v6.93c0 7.648-.074 7.386 2.402 8.308 1.7.629 4.172.414 5.387-.477m-3.54 7.602c-.894-.242-2.339-.856-3.206-1.363l-1.578-.922-.637.851c-.598.793-.875.852-4.008.852h-3.367V.289l1.344-.215c1.672-.265 4.847.211 5.61.844 1.39 1.156 1.593 2.266 1.593 8.703 0 3.438.094 6.25.21 6.25.118 0 .641-.297 1.161-.664 1.68-1.176 3.54-1.562 6.781-1.41 3.586.172 5.672 1.008 7.688 3.086 2.98 3.07 3.754 5.601 3.742 12.234-.004 4.094-.125 5.074-.871 7.184-1.04 2.953-2.41 4.742-4.184 6.297-1.773 1.554-3.11 1.71-4.375 1.914-1.804.289-3.707.672-5.902.078M44.677 24.086c-.364-2.297-.824-3.098-2.18-3.797-1.621-.84-4.633-.531-5.855.598-1.082.996-1.91 2.758-1.91 4.054v.903h10.222Zm-8.54 20.363c-4.366-1.18-6.882-3.37-9-7.844-1.109-2.343-1.257-7.199-1.32-7.699-.062-.5.223-5.093 1.227-7.144 2.613-5.324 7.047-8.02 13.207-8.024 3.434 0 4.746.332 7.305 1.864 3.656 2.18 5.34 5.91 5.34 11.812v3.418H34.652l.246 1.316c.305 1.618 1.305 3.637 2.211 4.457 2.672 2.418 8.22 2.188 11.602-.484.738-.578 1.504-.957 1.7-.832.679.418 2.128 3.707 2.128 4.824 0 1.469-1.535 2.899-4.203 3.926-2.836 1.094-8.918 1.297-12.2.41m-25.972.078C4.52 42.95.891 38.465.172 32.195c-1.281-11.27 4.625-18.441 15.2-18.457 5.679-.008 10.097 2.242 10.097 5.149 0 1.383-.801 3.441-1.594 4.101-.344.285-1.02.047-2.637-.914-4.351-2.594-8.918-1.965-10.96 1.508-.954 1.625-1.15 3.848-.993 5.645 0 0 .442 5.742 2.176 7.343 1.207 1.114 2.934 1.739 4.797 1.739 1.699 0 4.762-1.133 5.867-2.172 1.047-.985 1.547-.63 2.613 1.855 1.301 3.024.707 4.184-3.015 5.887-1.805.828-2.692.992-5.868 1.086-2.578.074-4.347-.059-5.69-.438" style="stroke:none;fill-rule:nonzero;fill:#4a64ab;fill-opacity:1"/><g clip-path="url(#a)"><path d="M138.238 38.398c3.086-2.238 3.801-11.55 1.13-14.726-2.25-2.672-5.833-2.656-8.165.039-1.289 1.488-1.691 3.176-1.683 7.008.007 3.117.128 3.824.902 5.343 1.57 3.094 5.254 4.196 7.816 2.336m-7.129 7.329c-4.379-.997-8.023-4.149-9.617-8.32-1-2.622-1.36-8.188-.719-11.11.575-2.613 2.329-5.922 4.055-7.656.754-.754 2.438-1.88 3.738-2.496 2.282-1.082 4.786-1.313 6.239-1.313 1.382.004 5.554.27 7.394 1.133 5.524 2.586 8.227 8.203 7.672 15.953-.629 8.863-5.367 13.715-13.77 14.113-1.71.082-3.882-.05-4.992-.304m-24.07-7.5.926-.606v-14.57l-1.488-.758c-3.215-1.64-6.93-.059-7.961 3.39-1.086 3.63-.45 9.844 1.203 11.735 1.465 1.676 5.344 2.105 7.32.809M93.598 58.16c-1.336-.453-2.836-1.23-3.328-1.722-1.465-1.47-1.141-3.723.902-6.305l.683-.867 1.735 1.101c2.031 1.29 5.008 2.23 7.047 2.227 4.726-.004 7.32-2.684 7.324-7.567l.004-1.695-1.871.98c-1.668.88-2.235.981-5.254.973-2.754-.012-3.73-.168-5.25-.844-4.426-1.972-6.86-6.91-6.86-13.925 0-4.957 1.497-9.836 3.774-12.29 1.363-1.28 1.375-1.28 2.992-2.124 1.55-.813 2.563-1.059 4.856-1.184 3.164-.176 4.703.18 6.718 1.55l1.282.868.996-.738c1.37-1.012 3.422-1.438 5.675-1.176l1.895.223-.145 15.894c-.152 16.856-.21 17.48-1.968 20.922-2.461 4.809-6.23 6.555-14.118 6.539-3.921-.008-5.039-.14-7.09-.84" style="stroke:none;fill-rule:nonzero;fill:#3b8c70;fill-opacity:1"/></g></svg>
